X:66
T:La Bergre Et Le Chasseur
M:6/8
L:1/8
N:Largo, air de chasse
N:La Bourre 4th edition 1929, page 69
Z:Steve Mansfield www.lesession.co.uk May 2012
K:Bb
c B G | F B B c d e |
d2 c B A G | F2 B (cd) c | !fermata! B3 F B c |
(dc) d !fermata! f2 e | (dc) B (ce) d | !fermata! c2 c (cB) G |
G2 c (cB) G | F2 B (cd) e | (dc) B d2 c | !fermata! B6 |]
<end>
<start>
